src/micaLogo18.svg

<svg width="446" height="184" viewBox="0 0 446 184" xmlns="http://www.w3.org/2000/svg" xmlns:xlink="http://www.w3.org/1999/xlink"><title>MICA_SecondaryLockUp1_RegularScale_Black</title><defs><path id="a" d="M0.06 74.141L0.06 0.284 117.578 0.284 117.578 74.141z"/></defs><g fill="none" fill-rule="evenodd"><g transform="translate(0 19)"><mask id="b" fill="#fff"><use xlink:href="#a"/></mask><path d="M69.849 74.141V55.704h7.904V23.569c-2.422 8.531-5.267 17.065-7.904 25.497-2.741 8.326-4.951 16.749-7.583 25.075H48.357c-2.632-7.273-4.95-14.539-7.479-21.81-3.159-9.165-5.902-18.648-9.479-27.605v30.978h8.635v18.437H0V55.704h8.218V18.616H0V.284h55.631c1.999 6.638 4.526 13.063 6.422 19.701 2.11-6.741 4.742-13.168 7.271-19.701h48.254v18.332h-8.22v37.088h8.22v18.437H69.849" fill="#000" mask="url(#b)"/></g><path fill="#000" d="M159.508 93.141L159.508 74.704 167.726 74.704 167.726 37.616 159.508 37.616 159.508 19.284 208.607 19.284 208.607 37.616 200.389 37.616 200.389 74.704 208.607 74.704 208.607 93.141 159.508 93.141"/><path d="M304.691 53.737v-.949c.105-6.743-2.005-16.435-10.644-16.435-11.166 0-11.799 12.115-11.799 20.441 0 8.11 1.265 20.542 12.015 20.542 9.898 0 11.586-8.218 10.742-16.33h21.077v3.476c-.214 21.705-16.971 30.025-36.769 30.025-24.764 0-41.725-12.218-41.725-38.135 0-21.916 13.593-38.565 36.247-38.565 10.528 0 16.114 3.268 22.227 11.697l.208-10.22h20.012v34.453h-21.591m89.973-10.854c-1.16 4.952-2.632 9.905-4.113 14.752h8.225c-1.369-4.952-2.954-9.694-4.112-14.752zm1.688 50.258V74.704h7.058c-.844-2.848-1.688-5.691-2.424-8.534h-12.538c-.736 2.843-1.579 5.686-2.423 8.534h7.585v18.437h-33.605V74.704h6.53c6.219-18.44 12.221-36.985 18.545-55.42h33.502c5.792 18.543 11.797 37.088 18.118 55.42h8.851v18.437h-49.199z" fill="#000"/><path fill="#000" d="M136.636 111.759L138.951 111.759 138.951 0.729 136.636 0.729z"/><path fill="#000" d="M226.906 111.759L229.221 111.759 229.221 0.729 226.906 0.729z"/><path fill="#000" d="M328.827 111.325L331.024 112.061 368.316 1.12 366.118 0.385 328.827 111.325"/><path d="M365.308 166.208h6.071v17.457h1.762v-17.457h6.099v-1.567h-13.932v1.567zm-14.407 0h5.343c1.875 0 2.686.168 3.469.531 1.231.56 1.958 1.623 1.958 3.19 0 1.566-.727 2.629-1.958 3.217-.783.336-1.594.531-3.469.531h-5.343v-7.469zm10.91 17.457h2.266l-6.042-8.449c1.091-.084 2.21-.336 3.161-.951 1.483-.895 2.378-2.266 2.378-4.308 0-2.043-.895-3.441-2.378-4.337-1.371-.867-2.966-.979-4.56-.979h-7.498v19.024h1.763v-8.421h5.035l5.875 8.421zm-20.422-7.358h-6.994l2.658-6.966c.503-1.287.615-1.678.839-2.35h.028c.196.672.364 1.203.811 2.322l2.658 6.994zm-7.581 1.623h8.197l2.126 5.735h1.902l-7.19-19.024h-1.734l-7.246 19.024h1.875l2.07-5.735zm-23.556 5.735v-9.064h9.456v-1.567h-9.456v-6.826h10.463v-1.567h-12.253v19.024h1.79zm-20.366-9.512c0-4.924 2.406-8.309 6.211-8.309s6.211 3.385 6.211 8.309c0 4.924-2.462 8.309-6.211 8.309s-6.211-3.385-6.211-8.309zm-1.874 0c0 5.903 3.049 9.847 8.085 9.847 5.064 0 8.085-3.944 8.085-9.847 0-5.987-3.049-9.847-8.085-9.847-5.036 0-8.085 3.86-8.085 9.847zm-12.057 7.945h-11.274v-7.413h9.707v-1.595h-9.707v-6.882h10.714v-1.567h-12.477v19.024h13.037v-1.567zm-25.738.336c-3.832 0-6.21-3.357-6.21-8.281s2.378-8.281 6.21-8.281c2.91 0 4.644 1.875 5.512 4.029l1.538-1.007c-.951-2.238-3.049-4.588-7.05-4.588-5.007 0-8.056 3.86-8.056 9.847S245.07 184 250.217 184c3.078 0 4.84-1.65 5.54-2.937v2.602h1.566v-9.624h-8.448v1.567h6.91v.168c0 2.182-.42 3.636-1.175 4.699-.924 1.315-2.574 1.959-4.393 1.959zm-11.134-.336h-11.274v-7.413h9.708v-1.595h-9.708v-6.882h10.715v-1.567h-12.477v19.024h13.036v-1.567zm-15.638 0h-10.491v-17.457h-1.762v19.024h12.253v-1.567zm-14.855 0h-10.491v-17.457h-1.762v19.024h12.253v-1.567zm-30.829-7.945c0-4.924 2.406-8.309 6.211-8.309s6.21 3.385 6.21 8.309c0 4.924-2.461 8.309-6.21 8.309s-6.211-3.385-6.211-8.309zm-1.874 0c0 5.903 3.049 9.847 8.085 9.847 5.063 0 8.085-3.944 8.085-9.847 0-5.987-3.05-9.847-8.085-9.847-5.036 0-8.085 3.86-8.085 9.847zm-3.161-5.259c-.951-2.238-3.05-4.588-7.05-4.588-5.008 0-8.057 3.86-8.057 9.847s2.909 9.847 8.057 9.847c4.224 0 6.155-2.573 7.134-4.811l-1.567-.84c-.783 2.182-2.49 4.085-5.567 4.085-3.833 0-6.211-3.357-6.211-8.281s2.378-8.281 6.211-8.281c2.909 0 4.644 1.875 5.511 4.029l1.539-1.007zm272.814-16.701h-11.274v-7.413h9.707v-1.595h-9.707v-6.882h10.715v-1.567h-12.477v19.024h13.036v-1.567zm-30.269-15.89h6.071v17.457h1.762v-17.457h6.099v-1.567h-13.932v1.567zm-10.239 17.82c3.609 0 6.154-1.622 6.91-4.839.14-.7.224-1.315.224-3.357v-11.191h-1.763v11.33c0 2.239-.168 3.078-.531 3.889-.784 1.79-2.518 2.602-4.84 2.602-2.35 0-4.085-.812-4.868-2.602-.364-.811-.531-1.65-.531-3.889v-11.33h-1.763v11.191c0 2.042.084 2.657.252 3.357.755 3.217 3.329 4.839 6.91 4.839zm-24.199-17.82h6.071v17.457h1.762v-17.457h6.099v-1.567h-13.932v1.567zm-5.063 17.457h1.762v-19.024h-1.762v19.024zm-17.233-17.457h6.071v17.457h1.762v-17.457h6.099v-1.567h-13.932v1.567zm-2.265.979c-1.147-1.511-3.246-2.881-6.379-2.881-3.777 0-6.406 2.154-6.406 5.119 0 3.385 2.434 4.336 5.259 4.952l2.378.531c2.714.588 4.056 1.483 4.056 3.553 0 2.378-1.846 3.973-5.119 3.973-3.273 0-5.232-1.847-5.987-3.805l-1.566 1.035c.979 2.126 3.385 4.336 7.525 4.336 4.364 0 7.022-2.405 7.022-5.651 0-3.133-2.014-4.364-5.343-5.091l-2.546-.56c-2.518-.559-3.833-1.315-3.833-3.413 0-2.042 1.902-3.385 4.476-3.385 2.182 0 3.861.923 5.064 2.49l1.399-1.203zm-30.381-2.546h-1.763v19.024h1.763v-13.652c0-1.371-.056-2.126-.112-2.798h.028c.084.252.867 1.567 1.622 2.63l9.652 13.82h1.762v-19.024h-1.762v13.624c0 1.371.028 2.099.084 2.77h-.028c-.084-.252-.812-1.511-1.567-2.574l-9.679-13.82zm-8.84 19.024h1.762v-19.024h-1.762v19.024zm-26.325-17.457h2.406c3.245 0 4.896.056 6.406 1.371 1.595 1.371 2.434 3.916 2.434 6.602 0 2.993-1.063 5.427-2.434 6.602-1.454 1.315-3.217 1.315-5.763 1.315h-3.049v-15.89zm2.574 17.457c3.721 0 5.791 0 7.777-1.959 1.762-1.706 2.77-4.42 2.77-7.609 0-3.469-1.259-6.966-4.113-8.504-1.566-.868-3.301-.952-5.847-.952h-4.923v19.024h4.336zm-22.996-19.024h-1.762v19.024h1.762v-13.652c0-1.371-.056-2.126-.112-2.798h.028c.084.252.867 1.567 1.623 2.63l9.651 13.82h1.763v-19.024h-1.763v13.624c0 1.371.028 2.099.084 2.77h-.028c-.084-.252-.811-1.511-1.566-2.574l-9.68-13.82zm-9.791 11.666h-6.994l2.658-6.966c.503-1.287.615-1.678.839-2.35h.028c.196.672.363 1.203.811 2.322l2.658 6.994zm-7.582 1.623h8.197l2.126 5.735h1.903l-7.19-19.024h-1.734l-7.246 19.024h1.874l2.07-5.735zm-5.874 4.168h-10.491v-17.457h-1.763v19.024h12.254v-1.567zm-22.325-6.238l7.218-11.219h-2.07l-5.931 9.428-5.735-9.428h-2.126l6.882 11.219v7.805h1.762v-7.805zm-23.415-9.652h5.343c1.875 0 2.686.168 3.469.532 1.231.559 1.958 1.622 1.958 3.189 0 1.566-.727 2.629-1.958 3.217-.783.336-1.594.531-3.469.531h-5.343v-7.469zm10.91 17.457h2.266l-6.042-8.449c1.091-.084 2.21-.336 3.161-.951 1.483-.895 2.378-2.266 2.378-4.308s-.895-3.441-2.378-4.337c-1.371-.867-2.965-.979-4.56-.979h-7.498v19.024h1.763v-8.421h5.036l5.874 8.421zm-20.702-7.358h-6.993l2.657-6.966c.504-1.287.616-1.678.839-2.35h.028c.196.672.364 1.203.812 2.322l2.657 6.994zm-7.581 1.623h8.197l2.126 5.735h1.902l-7.189-19.024h-1.735l-7.246 19.024h1.875l2.07-5.735zm-10.351-6.798a37.26 37.26 0 0 0 1.399-4.169h.028c-.084.812-.168 3.553-.168 5.204v11.498h1.763v-19.024h-2.155l-5.287 13.457c-.531 1.342-.783 2.126-.923 2.881h-.028c-.14-.727-.532-1.622-1.063-2.909l-5.567-13.429h-2.07v19.024h1.762v-12.002c0-1.65-.084-3.469-.196-4.336h.028c.252.951.616 2.098 1.371 3.917l5.147 12.421h1.064l4.895-12.533z" fill="#000"/></g></svg>

<?xml version="1.0" encoding="UTF-8"?>
<svg width="446px" height="184px" viewBox="0 0 446 184" version="1.1" xmlns="http://www.w3.org/2000/svg" xmlns:xlink="http://www.w3.org/1999/xlink">
    <!-- Generator: Sketch 46.2 (44496) - http://www.bohemiancoding.com/sketch -->
    <title>MICA_SecondaryLockUp1_RegularScale_Black</title>
    <desc>Created with Sketch.</desc>
    <defs>
        <polygon id="path-1" points="0.06 74.141 0.06 0.284 117.578 0.284 117.578 74.141"></polygon>
    </defs>
    <g id="Page-1" stroke="none" stroke-width="1" fill="none" fill-rule="evenodd">
        <g id="MICA_SecondaryLockUp1_RegularScale_Black">
            <g id="Group-3" transform="translate(0.000000, 19.000000)">
                <mask id="mask-2" fill="white">
                    <use xlink:href="#path-1"></use>
                </mask>
                <g id="Clip-2"></g>
                <path d="M69.849,74.141 L69.849,55.704 L77.753,55.704 L77.753,23.569 C75.331,32.1 72.486,40.634 69.849,49.066 C67.108,57.392 64.898,65.815 62.266,74.141 L48.357,74.141 C45.725,66.868 43.407,59.602 40.878,52.331 C37.719,43.166 34.976,33.683 31.399,24.726 L31.399,55.704 L40.034,55.704 L40.034,74.141 L0,74.141 L0,55.704 L8.218,55.704 L8.218,18.616 L0,18.616 L0,0.284 L55.631,0.284 C57.63,6.922 60.157,13.347 62.053,19.985 C64.163,13.244 66.795,6.817 69.324,0.284 L117.578,0.284 L117.578,18.616 L109.358,18.616 L109.358,55.704 L117.578,55.704 L117.578,74.141 L69.849,74.141" id="Fill-1" fill="#000000" mask="url(#mask-2)"></path>
            </g>
            <polyline id="Fill-4" fill="#000000" points="159.508 93.141 159.508 74.704 167.726 74.704 167.726 37.616 159.508 37.616 159.508 19.284 208.607 19.284 208.607 37.616 200.389 37.616 200.389 74.704 208.607 74.704 208.607 93.141 159.508 93.141"></polyline>
            <path d="M304.691,53.737 L304.691,52.788 C304.796,46.045 302.686,36.353 294.047,36.353 C282.881,36.353 282.248,48.468 282.248,56.794 C282.248,64.904 283.513,77.336 294.263,77.336 C304.161,77.336 305.849,69.118 305.005,61.006 L326.082,61.006 L326.082,64.482 C325.868,86.187 309.111,94.507 289.313,94.507 C264.549,94.507 247.588,82.289 247.588,56.372 C247.588,34.456 261.181,17.807 283.835,17.807 C294.363,17.807 299.949,21.075 306.062,29.504 L306.27,19.284 L326.282,19.284 L326.282,53.737 L304.691,53.737" id="Fill-5" fill="#000000"></path>
            <path d="M394.664,42.883 C393.504,47.835 392.032,52.788 390.551,57.635 L398.776,57.635 C397.407,52.683 395.822,47.941 394.664,42.883 Z M396.352,93.141 L396.352,74.704 L403.41,74.704 C402.566,71.856 401.722,69.013 400.986,66.17 L388.448,66.17 C387.712,69.013 386.869,71.856 386.025,74.704 L393.61,74.704 L393.61,93.141 L360.005,93.141 L360.005,74.704 L366.535,74.704 C372.754,56.264 378.756,37.719 385.08,19.284 L418.582,19.284 C424.374,37.827 430.379,56.372 436.7,74.704 L445.551,74.704 L445.551,93.141 L396.352,93.141 L396.352,93.141 Z" id="Fill-6" fill="#000000"></path>
            <polygon id="Fill-7" fill="#000000" points="136.636 111.759 138.951 111.759 138.951 0.729 136.636 0.729"></polygon>
            <polygon id="Fill-8" fill="#000000" points="226.906 111.759 229.221 111.759 229.221 0.729 226.906 0.729"></polygon>
            <polyline id="Fill-9" fill="#000000" points="328.827 111.325 331.024 112.061 368.316 1.12 366.118 0.385 328.827 111.325"></polyline>
            <path d="M365.308,166.208 L371.379,166.208 L371.379,183.665 L373.141,183.665 L373.141,166.208 L379.24,166.208 L379.24,164.641 L365.308,164.641 L365.308,166.208 Z M350.901,166.208 L356.244,166.208 C358.119,166.208 358.93,166.376 359.713,166.739 C360.944,167.299 361.671,168.362 361.671,169.929 C361.671,171.495 360.944,172.558 359.713,173.146 C358.93,173.482 358.119,173.677 356.244,173.677 L350.901,173.677 L350.901,166.208 Z M361.811,183.665 L364.077,183.665 L358.035,175.216 C359.126,175.132 360.245,174.88 361.196,174.265 C362.679,173.37 363.574,171.999 363.574,169.957 C363.574,167.914 362.679,166.516 361.196,165.62 C359.825,164.753 358.23,164.641 356.636,164.641 L349.138,164.641 L349.138,183.665 L350.901,183.665 L350.901,175.244 L355.936,175.244 L361.811,183.665 Z M341.389,176.307 L334.395,176.307 L337.053,169.341 C337.556,168.054 337.668,167.663 337.892,166.991 L337.92,166.991 C338.116,167.663 338.284,168.194 338.731,169.313 L341.389,176.307 Z M333.808,177.93 L342.005,177.93 L344.131,183.665 L346.033,183.665 L338.843,164.641 L337.109,164.641 L329.863,183.665 L331.738,183.665 L333.808,177.93 Z M310.252,183.665 L310.252,174.601 L319.708,174.601 L319.708,173.034 L310.252,173.034 L310.252,166.208 L320.715,166.208 L320.715,164.641 L308.462,164.641 L308.462,183.665 L310.252,183.665 Z M289.886,174.153 C289.886,169.229 292.292,165.844 296.097,165.844 C299.902,165.844 302.308,169.229 302.308,174.153 C302.308,179.077 299.846,182.462 296.097,182.462 C292.348,182.462 289.886,179.077 289.886,174.153 Z M288.012,174.153 C288.012,180.056 291.061,184 296.097,184 C301.161,184 304.182,180.056 304.182,174.153 C304.182,168.166 301.133,164.306 296.097,164.306 C291.061,164.306 288.012,168.166 288.012,174.153 Z M275.955,182.098 L264.681,182.098 L264.681,174.685 L274.388,174.685 L274.388,173.09 L264.681,173.09 L264.681,166.208 L275.395,166.208 L275.395,164.641 L262.918,164.641 L262.918,183.665 L275.955,183.665 L275.955,182.098 Z M250.217,182.434 C246.385,182.434 244.007,179.077 244.007,174.153 C244.007,169.229 246.385,165.872 250.217,165.872 C253.127,165.872 254.861,167.747 255.729,169.901 L257.267,168.894 C256.316,166.656 254.218,164.306 250.217,164.306 C245.21,164.306 242.161,168.166 242.161,174.153 C242.161,180.14 245.07,184 250.217,184 C253.295,184 255.057,182.35 255.757,181.063 L255.757,183.665 L257.323,183.665 L257.323,174.041 L248.875,174.041 L248.875,175.608 L255.785,175.608 L255.785,175.776 C255.785,177.958 255.365,179.412 254.61,180.475 C253.686,181.79 252.036,182.434 250.217,182.434 Z M239.083,182.098 L227.809,182.098 L227.809,174.685 L237.517,174.685 L237.517,173.09 L227.809,173.09 L227.809,166.208 L238.524,166.208 L238.524,164.641 L226.047,164.641 L226.047,183.665 L239.083,183.665 L239.083,182.098 Z M223.445,182.098 L212.954,182.098 L212.954,164.641 L211.192,164.641 L211.192,183.665 L223.445,183.665 L223.445,182.098 Z M208.59,182.098 L198.099,182.098 L198.099,164.641 L196.337,164.641 L196.337,183.665 L208.59,183.665 L208.59,182.098 Z M177.761,174.153 C177.761,169.229 180.167,165.844 183.972,165.844 C187.777,165.844 190.182,169.229 190.182,174.153 C190.182,179.077 187.721,182.462 183.972,182.462 C180.223,182.462 177.761,179.077 177.761,174.153 Z M175.887,174.153 C175.887,180.056 178.936,184 183.972,184 C189.035,184 192.057,180.056 192.057,174.153 C192.057,168.166 189.007,164.306 183.972,164.306 C178.936,164.306 175.887,168.166 175.887,174.153 Z M172.726,168.894 C171.775,166.656 169.676,164.306 165.676,164.306 C160.668,164.306 157.619,168.166 157.619,174.153 C157.619,180.14 160.528,184 165.676,184 C169.9,184 171.831,181.427 172.81,179.189 L171.243,178.349 C170.46,180.531 168.753,182.434 165.676,182.434 C161.843,182.434 159.465,179.077 159.465,174.153 C159.465,169.229 161.843,165.872 165.676,165.872 C168.585,165.872 170.32,167.747 171.187,169.901 L172.726,168.894 L172.726,168.894 Z" id="Fill-10" fill="#000000"></path>
            <path d="M445.54,152.193 L434.266,152.193 L434.266,144.78 L443.973,144.78 L443.973,143.185 L434.266,143.185 L434.266,136.303 L444.981,136.303 L444.981,134.736 L432.504,134.736 L432.504,153.76 L445.54,153.76 L445.54,152.193 Z M415.271,136.303 L421.342,136.303 L421.342,153.76 L423.104,153.76 L423.104,136.303 L429.203,136.303 L429.203,134.736 L415.271,134.736 L415.271,136.303 Z M405.032,154.123 C408.641,154.123 411.186,152.501 411.942,149.284 C412.082,148.584 412.166,147.969 412.166,145.927 L412.166,134.736 L410.403,134.736 L410.403,146.066 C410.403,148.305 410.235,149.144 409.872,149.955 C409.088,151.745 407.354,152.557 405.032,152.557 C402.682,152.557 400.947,151.745 400.164,149.955 C399.8,149.144 399.633,148.305 399.633,146.066 L399.633,134.736 L397.87,134.736 L397.87,145.927 C397.87,147.969 397.954,148.584 398.122,149.284 C398.877,152.501 401.451,154.123 405.032,154.123 Z M380.833,136.303 L386.904,136.303 L386.904,153.76 L388.666,153.76 L388.666,136.303 L394.765,136.303 L394.765,134.736 L380.833,134.736 L380.833,136.303 Z M375.77,153.76 L377.532,153.76 L377.532,134.736 L375.77,134.736 L375.77,153.76 Z M358.537,136.303 L364.608,136.303 L364.608,153.76 L366.37,153.76 L366.37,136.303 L372.469,136.303 L372.469,134.736 L358.537,134.736 L358.537,136.303 Z M356.272,137.282 C355.125,135.771 353.026,134.401 349.893,134.401 C346.116,134.401 343.487,136.555 343.487,139.52 C343.487,142.905 345.921,143.856 348.746,144.472 L351.124,145.003 C353.838,145.591 355.18,146.486 355.18,148.556 C355.18,150.934 353.334,152.529 350.061,152.529 C346.788,152.529 344.829,150.682 344.074,148.724 L342.508,149.759 C343.487,151.885 345.893,154.095 350.033,154.095 C354.397,154.095 357.055,151.69 357.055,148.444 C357.055,145.311 355.041,144.08 351.712,143.353 L349.166,142.793 C346.648,142.234 345.333,141.478 345.333,139.38 C345.333,137.338 347.235,135.995 349.809,135.995 C351.991,135.995 353.67,136.918 354.873,138.485 L356.272,137.282 Z M325.891,134.736 L324.128,134.736 L324.128,153.76 L325.891,153.76 L325.891,140.108 C325.891,138.737 325.835,137.982 325.779,137.31 L325.807,137.31 C325.891,137.562 326.674,138.877 327.429,139.94 L337.081,153.76 L338.843,153.76 L338.843,134.736 L337.081,134.736 L337.081,148.36 C337.081,149.731 337.109,150.459 337.165,151.13 L337.137,151.13 C337.053,150.878 336.325,149.619 335.57,148.556 L325.891,134.736 Z M317.051,153.76 L318.813,153.76 L318.813,134.736 L317.051,134.736 L317.051,153.76 Z M290.726,136.303 L293.132,136.303 C296.377,136.303 298.028,136.359 299.538,137.674 C301.133,139.045 301.972,141.59 301.972,144.276 C301.972,147.269 300.909,149.703 299.538,150.878 C298.084,152.193 296.321,152.193 293.775,152.193 L290.726,152.193 L290.726,136.303 Z M293.3,153.76 C297.021,153.76 299.091,153.76 301.077,151.801 C302.839,150.095 303.847,147.381 303.847,144.192 C303.847,140.723 302.588,137.226 299.734,135.688 C298.168,134.82 296.433,134.736 293.887,134.736 L288.964,134.736 L288.964,153.76 L293.3,153.76 Z M270.304,134.736 L268.542,134.736 L268.542,153.76 L270.304,153.76 L270.304,140.108 C270.304,138.737 270.248,137.982 270.192,137.31 L270.22,137.31 C270.304,137.562 271.087,138.877 271.843,139.94 L281.494,153.76 L283.257,153.76 L283.257,134.736 L281.494,134.736 L281.494,148.36 C281.494,149.731 281.522,150.459 281.578,151.13 L281.55,151.13 C281.466,150.878 280.739,149.619 279.984,148.556 L270.304,134.736 Z M260.513,146.402 L253.519,146.402 L256.177,139.436 C256.68,138.149 256.792,137.758 257.016,137.086 L257.044,137.086 C257.24,137.758 257.407,138.289 257.855,139.408 L260.513,146.402 Z M252.931,148.025 L261.128,148.025 L263.254,153.76 L265.157,153.76 L257.967,134.736 L256.233,134.736 L248.987,153.76 L250.861,153.76 L252.931,148.025 Z M247.057,152.193 L236.566,152.193 L236.566,134.736 L234.803,134.736 L234.803,153.76 L247.057,153.76 L247.057,152.193 Z M224.732,145.955 L231.95,134.736 L229.88,134.736 L223.949,144.164 L218.214,134.736 L216.088,134.736 L222.97,145.955 L222.97,153.76 L224.732,153.76 L224.732,145.955 Z M201.317,136.303 L206.66,136.303 C208.535,136.303 209.346,136.471 210.129,136.835 C211.36,137.394 212.087,138.457 212.087,140.024 C212.087,141.59 211.36,142.653 210.129,143.241 C209.346,143.577 208.535,143.772 206.66,143.772 L201.317,143.772 L201.317,136.303 Z M212.227,153.76 L214.493,153.76 L208.451,145.311 C209.542,145.227 210.661,144.975 211.612,144.36 C213.095,143.465 213.99,142.094 213.99,140.052 C213.99,138.01 213.095,136.611 211.612,135.715 C210.241,134.848 208.647,134.736 207.052,134.736 L199.554,134.736 L199.554,153.76 L201.317,153.76 L201.317,145.339 L206.353,145.339 L212.227,153.76 Z M191.525,146.402 L184.532,146.402 L187.189,139.436 C187.693,138.149 187.805,137.758 188.028,137.086 L188.056,137.086 C188.252,137.758 188.42,138.289 188.868,139.408 L191.525,146.402 Z M183.944,148.025 L192.141,148.025 L194.267,153.76 L196.169,153.76 L188.98,134.736 L187.245,134.736 L179.999,153.76 L181.874,153.76 L183.944,148.025 Z M173.593,141.227 C174.321,139.408 174.796,137.814 174.992,137.058 L175.02,137.058 C174.936,137.87 174.852,140.611 174.852,142.262 L174.852,153.76 L176.615,153.76 L176.615,134.736 L174.46,134.736 L169.173,148.193 C168.642,149.535 168.39,150.319 168.25,151.074 L168.222,151.074 C168.082,150.347 167.69,149.452 167.159,148.165 L161.592,134.736 L159.522,134.736 L159.522,153.76 L161.284,153.76 L161.284,141.758 C161.284,140.108 161.2,138.289 161.088,137.422 L161.116,137.422 C161.368,138.373 161.732,139.52 162.487,141.339 L167.634,153.76 L168.698,153.76 L173.593,141.227 L173.593,141.227 Z" id="Fill-11" fill="#000000"></path>
        </g>
    </g>
</svg>
